Origami/48x48/apps/emerald-theme-manager-icon.svg

<svg width="48" height="48" version="1" xmlns="http://www.w3.org/2000/svg">
 <path d="m14.399943 6.000001a2.4002537 2.5336174 0 0 0 -1.750791 0.8003351l-9.0000525 10.133457a2.4002537 2.5336174 0 0 0 -0.067968 3.385652l18.600108 22.800276a2.4002537 2.5336174 0 0 0 3.63752 0l18.600106-22.800276a2.4002537 2.5336174 0 0 0 -0.06796 -3.385652l-9.000056-10.133457a2.4002537 2.5336174 0 0 0 -1.750797 -0.8003351h-9.600054-9.600055z" style="opacity:.2"/>
 <path d="m14.399943 5.0000006a2.4002537 2.5336174 0 0 0 -1.750791 0.8003351l-9.0000525 10.133457a2.4002537 2.5336174 0 0 0 -0.067968 3.385652l18.600108 22.800276a2.4002537 2.5336174 0 0 0 3.63752 0l18.600106-22.800276a2.4002537 2.5336174 0 0 0 -0.06796 -3.385652l-9.000056-10.133457a2.4002537 2.5336174 0 0 0 -1.750797 -0.8003351h-9.600054-9.600055z" style="fill:#87d53c"/>
 <path d="m14.400391 5a2.4002537 2.5336174 0 0 0 -1.751953 0.8007812l-9.0000005 10.132813a2.4002537 2.5336174 0 0 0 -0.6269531 2.066406h41.955078a2.4002537 2.5336174 0 0 0 -0.625 -2.066406l-9-10.132813a2.4002537 2.5336174 0 0 0 -1.751953 -0.8007812h-9.599609-9.599609z" style="opacity:.2"/>
 <path transform="matrix(1.0167496 0 0 .76312684 18.916252 17.973156)" d="m5.0000003-17 9.8352627 17.035176-19.670526-5.2e-7z" style="fill:#87d53c"/>
 <path d="m24 43 10-25h-20z" style="opacity:.2"/>
 <path d="m14.400391 5a2.4002537 2.5336174 0 0 0 -1.751953 0.8007812l-9.0000005 10.132813a2.4002537 2.5336174 0 0 0 -0.5996094 2.232422 2.4002537 2.5336174 0 0 1 0.5996094 -1.232422l9.0000005-10.132813a2.4002537 2.5336174 0 0 1 1.751953 -0.8007812h9.599609 9.599609a2.4002537 2.5336174 0 0 1 1.751953 0.8007812l9 10.132813a2.4002537 2.5336174 0 0 1 0.59961 1.232422 2.4002537 2.5336174 0 0 0 -0.59961 -2.232422l-9-10.132813a2.4002537 2.5336174 0 0 0 -1.751953 -0.8007812h-9.599609-9.599609z" style="fill:#ffffff;opacity:.2"/>
</svg>

<svg xmlns="http://www.w3.org/2000/svg" width="48" height="48" version="1">
 <path style="opacity:0.2" d="M 14.399943,6.000001 A 2.4002537,2.5336174 0 0 0 12.649152,6.8003361 L 3.6490995,16.933793 a 2.4002537,2.5336174 0 0 0 -0.067968,3.385652 L 22.181239,43.119721 a 2.4002537,2.5336174 0 0 0 3.63752,0 L 44.418865,20.319445 a 2.4002537,2.5336174 0 0 0 -0.06796,-3.385652 L 35.350849,6.8003361 A 2.4002537,2.5336174 0 0 0 33.600052,6.000001 l -9.600054,0 -9.600055,0 z"/>
 <path style="fill:#87d53c" d="M 14.399943,5.0000006 A 2.4002537,2.5336174 0 0 0 12.649152,5.8003357 L 3.6490995,15.933793 a 2.4002537,2.5336174 0 0 0 -0.067968,3.385652 L 22.181239,42.119721 a 2.4002537,2.5336174 0 0 0 3.63752,0 L 44.418865,19.319445 a 2.4002537,2.5336174 0 0 0 -0.06796,-3.385652 L 35.350849,5.8003357 A 2.4002537,2.5336174 0 0 0 33.600052,5.0000006 l -9.600054,0 -9.600055,0 z"/>
 <path style="opacity:0.2" d="M 14.400391 5 A 2.4002537 2.5336174 0 0 0 12.648438 5.8007812 L 3.6484375 15.933594 A 2.4002537 2.5336174 0 0 0 3.0214844 18 L 44.976562 18 A 2.4002537 2.5336174 0 0 0 44.351562 15.933594 L 35.351562 5.8007812 A 2.4002537 2.5336174 0 0 0 33.599609 5 L 24 5 L 14.400391 5 z"/>
 <path style="fill:#87d53c" d="m 5.0000003,-17 9.8352627,17.03517606 -19.6705265,-5.2e-7 z" transform="matrix(1.0167496,0,0,0.76312684,18.916252,17.973156)"/>
 <path style="opacity:0.2" d="M 24,43 34,18 14,18 Z"/>
 <path style="opacity:0.2;fill:#ffffff" d="M 14.400391 5 A 2.4002537 2.5336174 0 0 0 12.648438 5.8007812 L 3.6484375 15.933594 A 2.4002537 2.5336174 0 0 0 3.0488281 18.166016 A 2.4002537 2.5336174 0 0 1 3.6484375 16.933594 L 12.648438 6.8007812 A 2.4002537 2.5336174 0 0 1 14.400391 6 L 24 6 L 33.599609 6 A 2.4002537 2.5336174 0 0 1 35.351562 6.8007812 L 44.351562 16.933594 A 2.4002537 2.5336174 0 0 1 44.951172 18.166016 A 2.4002537 2.5336174 0 0 0 44.351562 15.933594 L 35.351562 5.8007812 A 2.4002537 2.5336174 0 0 0 33.599609 5 L 24 5 L 14.400391 5 z"/>
</svg>
